src/food-drink/food-vegetable/1F330.svg

<?xml version="1.0" encoding="UTF-8"?>
<svg id="emoji" xmlns="http://www.w3.org/2000/svg" viewBox="0 0 72 72">
  <g id="grid">
    <path d="m68,4v64H4V4h64M72,0H0v72h72V0Z" fill="#b3b3b3"/>
    <path d="m12.923,10.9583h46.1539c1.0621,0,1.9231.861,1.9231,1.9231h0v46.1538c0,1.0621-.861,1.9231-1.9231,1.9231H12.9231c-1.0621,0-1.9231-.861-1.9231-1.9231h0V12.8813c0-1.062.861-1.923,1.923-1.923h0Z" fill="none" stroke="#00a5ff" stroke-miterlimit="10" stroke-width=".1"/>
    <rect x="16" y="4" width="40" height="64" rx="2.2537" ry="2.2537" fill="none" stroke="#00a5ff" stroke-miterlimit="10" stroke-width=".1"/>
    <rect x="4" y="16" width="64" height="40" rx="2.2537" ry="2.2537" fill="none" stroke="#00a5ff" stroke-miterlimit="10" stroke-width=".1"/>
    <circle cx="36" cy="36" r="29" fill="none" stroke="#00a5ff" stroke-miterlimit="10" stroke-width=".1"/>
  </g>
  <g id="color">
    <path d="m28,28.6136l18-1s5,25-1,25l-9,5-7.79-4.7685c-4.21-12.2315-.21-24.2315-.21-24.2315Z" fill="#a57939"/>
    <path d="m17,23.6136s1.3997-3.1233,4.9774-5.8066c6.7747-4.6017,14.6946-4.3,14.6946-4.3l-13.672,12.1066-6-2Z" fill="#f1b31c"/>
    <path d="m27,27.6136l-11.2506-4s-12.7494,19,11.2506,28v-24Z" fill="#6a462f"/>
    <path d="m47,27.6136l9.8246-3.1745s10.931,12.1435-9.8246,27.1745l1-13-1-11Z" fill="#6a462f"/>
    <path d="m16.9266,23.4983l.0839.1938c17.4971,10.4924,39.9895-.0785,39.9895-.0785-4.4394-6.2995-11.6499-10.0647-19.3564-10.1076" fill="#f1b31c"/>
  </g>
  <g id="line">
    <path d="m16.9266,23.4983l.0839.1938c17.4971,10.4924,39.9895-.0785,39.9895-.0785-4.4394-6.2995-11.6499-10.0647-19.3564-10.1076" fill="none" stroke="#000" stroke-miterlimit="10" stroke-width="2"/>
    <path d="m16,23.6136c17.4971,10.4924,41,0,41,0" fill="none" stroke="#000" stroke-miterlimit="10" stroke-width="2"/>
    <path d="m46.4732,27.5435s4.6059,13.5332-1.1843,25.3016" fill="none" stroke="#000" stroke-miterlimit="10" stroke-width="2"/>
    <path d="m46.4732,27.5435s4.6059,13.5332-1.1843,25.3016" fill="none" stroke="#000" stroke-miterlimit="10" stroke-width="2"/>
    <path d="m21.9774,17.807c-6.1574,3.983-10.2448,10.3897-9.8666,17.7417.3892,7.5649,6.78,14.6806,13.5472,16.3619,4.101,1.0189,8.7043,4.8382,10.0172,5.9834.2172.1908.537.2077.7731.0409,2.7272-1.8628,5.5839-3.5287,8.5483-4.9849,8.5745-4.2024,13.5034-9.836,14.977-17.4009,2.291-11.7612-10.0847-22.0421-23.3016-22.0421-3.9287.0022-7.8109.8495-11.3832,2.4845" fill="none" stroke="#000" stroke-linecap="round" stroke-linejoin="round" stroke-width="2"/>
    <path d="m27.0255,27.5435c-.5483,8.4517-.151,16.9381,1.1845,25.3016" fill="none" stroke="#000" stroke-miterlimit="10" stroke-width="2"/>
  </g>
</svg>

<svg id="emoji" viewBox="0 0 72 72" xmlns="http://www.w3.org/2000/svg">
  <g id="grid">
    <path fill="#b3b3b3" d="M68,4V68H4V4H68m4-4H0V72H72V0Z"/>
    <path fill="none" stroke="#00a5ff" stroke-miterlimit="10" stroke-width="0.1" d="M12.923,10.9583H59.0769A1.9231,1.9231,0,0,1,61,12.8814V59.0352a1.9231,1.9231,0,0,1-1.9231,1.9231H12.9231A1.9231,1.9231,0,0,1,11,59.0352V12.8813A1.923,1.923,0,0,1,12.923,10.9583Z"/>
    <rect x="16" y="4" rx="2.2537" ry="2.2537" width="40" height="64" fill="none" stroke="#00a5ff" stroke-miterlimit="10" stroke-width="0.1"/>
    <rect x="16" y="4" rx="2.2537" ry="2.2537" width="40" height="64" transform="translate(72) rotate(90)" fill="none" stroke="#00a5ff" stroke-miterlimit="10" stroke-width="0.1"/>
    <circle cx="36" cy="36" r="29" fill="none" stroke="#00a5ff" stroke-miterlimit="10" stroke-width="0.1"/>
  </g>
  <g id="color">
    <path fill="#a57939" d="M28,28.6136l18-1s5,25-1,25l-9,5-7.79-4.7685C24,40.6136,28,28.6136,28,28.6136Z"/>
    <path fill="#f1b31c" d="M17,23.6136s.4223-2.3167,4-5c4-3,16-5,16-5l-14,12Z"/>
    <path fill="#6a462f" d="M27,27.6136l-11.2506-4S3,42.6136,27,51.6136Z"/>
    <path fill="#6a462f" d="M47,27.6136l11.2506-4s10.4988,11.429-11.2506,28l1-13Z"/>
    <path fill="#f1b31c" d="M16.9266,23.4983l.0839.1938C34.5076,34.1845,57,23.6136,57,23.6136A23.8426,23.8426,0,0,0,37.6436,13.506"/>
  </g>
  <g id="line">
    <path fill="none" stroke="#000000" stroke-miterlimit="10" stroke-width="2" d="M16.9266,23.4983l.0839.1938C34.5076,34.1845,57,23.6136,57,23.6136A23.8426,23.8426,0,0,0,37.6436,13.506"/>
    <path fill="none" stroke="#000000" stroke-miterlimit="10" stroke-width="2" d="M16,23.6136c17.4971,10.4924,41,0,41,0"/>
    <path fill="none" stroke="#000000" stroke-miterlimit="10" stroke-width="2" d="M46.4732,27.5435s4.6059,13.5332-1.1843,25.3016"/>
    <path fill="none" stroke="#000000" stroke-miterlimit="10" stroke-width="2" d="M46.4732,27.5435s4.6059,13.5332-1.1843,25.3016"/>
    <path fill="none" stroke="#000000" stroke-linecap="round" stroke-linejoin="round" stroke-width="2" d="M21.9774,17.807C15.82,21.79,11.7326,28.1967,12.1108,35.5487c.3892,7.5649,6.78,14.6806,13.5472,16.3619,4.101,1.0189,8.7043,4.8382,10.0172,5.9834a.625.625,0,0,0,.7731.0409A69.4328,69.4328,0,0,1,44.9966,52.95c8.5745-4.2024,13.5034-9.836,14.977-17.4009,2.291-11.7612-10.0847-22.0421-23.3016-22.0421a27.39,27.39,0,0,0-11.3832,2.4845"/>
    <path fill="none" stroke="#000000" stroke-miterlimit="10" stroke-width="2" d="M27.0255,27.5435A113.7564,113.7564,0,0,0,28.21,52.8451"/>
  </g>
</svg>
